src/assets/svg/icons/js-icon.svg

<svg width="80px" height="80px" viewBox="0 0 101 101" fill="none" xmlns="http://www.w3.org/2000/svg">
<path d="M100.552 0.594238H0.552246V100.594H100.552V0.594238Z" fill="#F7DF1E"/>
<path d="M67.7268 78.7197C69.7411 82.0086 72.3617 84.426 76.9966 84.426C80.8903 84.426 83.3776 82.48 83.3776 79.7911C83.3776 76.5689 80.822 75.4276 76.5363 73.553L74.1871 72.5451C67.4061 69.6562 62.9014 66.0371 62.9014 58.3863C62.9014 51.3387 68.2712 45.9736 76.6633 45.9736C82.6379 45.9736 86.9331 48.053 90.0284 53.4974L82.7109 58.1959C81.0998 55.307 79.3617 54.1689 76.6633 54.1689C73.9109 54.1689 72.1665 55.9149 72.1665 58.1959C72.1665 61.0149 73.9125 62.1562 77.9442 63.9022L80.2934 64.9086C88.2776 68.3324 92.7855 71.8228 92.7855 79.6705C92.7855 88.1308 86.1395 92.7657 77.2141 92.7657C68.4871 92.7657 62.849 88.607 60.0903 83.1562L67.7268 78.7197ZM34.5315 79.534C36.0077 82.153 37.3506 84.3673 40.5791 84.3673C43.6665 84.3673 45.6141 83.1593 45.6141 78.4625V46.5101H55.0109V78.5895C55.0109 88.3197 49.3061 92.7482 40.9791 92.7482C33.4553 92.7482 29.0982 88.8546 26.8823 84.1649L34.5315 79.534Z" fill="black"/>
</svg>

<svg xmlns="http://www.w3.org/2000/svg" width="80" height="80" viewBox="0 0 101 101" fill="none" xmlns:v="https://vecta.io/nano"><path d="M100.552.594h-100v100h100v-100z" fill="#f7df1e"/><path d="M67.727 78.72c2.014 3.289 4.635 5.706 9.27 5.706 3.894 0 6.381-1.946 6.381-4.635 0-3.222-2.556-4.364-6.841-6.238l-2.349-1.008c-6.781-2.889-11.286-6.508-11.286-14.159 0-7.048 5.37-12.413 13.762-12.413 5.975 0 10.27 2.079 13.365 7.524l-7.318 4.699c-1.611-2.889-3.349-4.027-6.048-4.027-2.752 0-4.497 1.746-4.497 4.027 0 2.819 1.746 3.96 5.778 5.706l2.349 1.006c7.984 3.424 12.492 6.914 12.492 14.762 0 8.46-6.646 13.095-15.571 13.095-8.727 0-14.365-4.159-17.124-9.609l7.636-4.436zm-33.195.814c1.476 2.619 2.819 4.833 6.048 4.833 3.087 0 5.035-1.208 5.035-5.905V46.51h9.397V78.59c0 9.73-5.705 14.159-14.032 14.159-7.524 0-11.881-3.894-14.097-8.583l7.649-4.631z" fill="#000"/></svg>
